X:225
T: DES ABENDS WENN ES DUNKEL WIRD
N: E0813B
O: Europa, Mitteleuropa, Deutschland, Rheinpfalz, Mussbach a.d. Hardt
R: Tage - Lied, Kilt - Lied
M: 4/4
L: 1/8
K: G
D2 | G3FG2A2 | B3cA2
GB | d2d2c2c2 | B2d2A2
d2 | Bdddd2ed | d2cBc2
dc | B2BBB2d2 | A3GA2
BA | G2B2A2c2 | B2e2d2B2 | A4G2

